site/resources/images/cancel.svg

<svg height="24" viewBox="0 0 24 24" width="24" xmlns="http://www.w3.org/2000/svg"><path d="m0 0h24v24h-24z" fill="none" opacity=".87"/><path d="m12 2c-5.53 0-10 4.47-10 10s4.47 10 10 10 10-4.47 10-10-4.47-10-10-10zm4.3 14.3c-.39.39-1.02.39-1.41 0l-2.89-2.89-2.89 2.89c-.39.39-1.02.39-1.41 0s-.39-1.02 0-1.41l2.89-2.89-2.89-2.89c-.39-.39-.39-1.02 0-1.41s1.02-.39 1.41 0l2.89 2.89 2.89-2.89c.39-.39 1.02-.39 1.41 0s.39 1.02 0 1.41l-2.89 2.89 2.89 2.89c.38.38.38 1.02 0 1.41z"/></svg>

<svg xmlns="http://www.w3.org/2000/svg" height="24" viewBox="0 0 24 24" width="24"><path d="M0 0h24v24H0V0z" fill="none" opacity=".87"/><path d="M12 2C6.47 2 2 6.47 2 12s4.47 10 10 10 10-4.47 10-10S17.53 2 12 2zm4.3 14.3c-.39.39-1.02.39-1.41 0L12 13.41 9.11 16.3c-.39.39-1.02.39-1.41 0-.39-.39-.39-1.02 0-1.41L10.59 12 7.7 9.11c-.39-.39-.39-1.02 0-1.41.39-.39 1.02-.39 1.41 0L12 10.59l2.89-2.89c.39-.39 1.02-.39 1.41 0 .39.39.39 1.02 0 1.41L13.41 12l2.89 2.89c.38.38.38 1.02 0 1.41z"/></svg>
